assets/svg/icon_categories_programm.svg

<svg width="24" height="24" viewBox="0 0 24 24" fill="none" xmlns="http://www.w3.org/2000/svg">
    <path
        d="M14.8 9.6L14.9373 9.73726C16.0039 10.8039 16.5373 11.3373 16.5373 12C16.5373 12.6627 16.0039 13.1961 14.9373 14.2627L14.8 14.4M13.0353 8.1363L10.9647 15.8637M9.2 9.6L9.06274 9.73726C7.99608 10.8039 7.46274 11.3373 7.46274 12C7.46274 12.6627 7.99608 13.1961 9.06274 14.2627L9.2 14.4M12 20C8.22876 20 6.34315 20 5.17157 18.8284C4 17.6569 4 15.7712 4 12C4 8.22876 4 6.34315 5.17157 5.17157C6.34315 4 8.22876 4 12 4C15.7712 4 17.6569 4 18.8284 5.17157C20 6.34315 20 8.22876 20 12C20 15.7712 20 17.6569 18.8284 18.8284C17.6569 20 15.7712 20 12 20Z"
        stroke="#9A9A9A" stroke-width="1.2" stroke-linecap="round" />
</svg>

<svg xmlns="http://www.w3.org/2000/svg" width="24" height="24" fill="none"><path stroke="#9A9A9A" stroke-linecap="round" stroke-width="1.2" d="m14.8 9.6.137.137c1.067 1.067 1.6 1.6 1.6 2.263s-.533 1.196-1.6 2.263l-.137.137m-1.765-6.264-2.07 7.728M9.2 9.6l-.137.137c-1.067 1.067-1.6 1.6-1.6 2.263s.533 1.196 1.6 2.263l.137.137M12 20c-3.771 0-5.657 0-6.828-1.172S4 15.771 4 12s0-5.657 1.172-6.828S8.229 4 12 4s5.657 0 6.828 1.172S20 8.229 20 12s0 5.657-1.172 6.828S15.771 20 12 20Z"/></svg>
